svgs/duotone/school-flag.svg

<svg xmlns="http://www.w3.org/2000/svg" viewBox="0 0 576 512"><!--! Font Awesome Pro 6.4.2 by @fontawesome - https://fontawesome.com License - https://fontawesome.com/license (Commercial License) Copyright 2023 Fonticons, Inc. --><path class="fa-primary" style="fill:var(--fa-primary-color,inherit);opacity:var(--fa-primary-opacity,1);" d="M297.4 1.4c2-.9 4.2-1.4 6.6-1.4h96c8.8 0 16 7.2 16 16V80c0 8.8-7.2 16-16 16H320 304 256V32c0-17.7 14.3-32 32-32c3.3 0 6.4 .5 9.4 1.4zM80 224h32c8.8 0 16 7.2 16 16v64c0 8.8-7.2 16-16 16H80c-8.8 0-16-7.2-16-16V240c0-8.8 7.2-16 16-16zm384 0h32c8.8 0 16 7.2 16 16v64c0 8.8-7.2 16-16 16H464c-8.8 0-16-7.2-16-16V240c0-8.8 7.2-16 16-16zM64 368c0-8.8 7.2-16 16-16h32c8.8 0 16 7.2 16 16v64c0 8.8-7.2 16-16 16H80c-8.8 0-16-7.2-16-16V368zm400-16h32c8.8 0 16 7.2 16 16v64c0 8.8-7.2 16-16 16H464c-8.8 0-16-7.2-16-16V368c0-8.8 7.2-16 16-16z"/><path class="fa-secondary" style="fill:var(--fa-secondary-color,inherit);opacity:var(--fa-secondary-opacity,.4);" d="M255.3 96l-89.6 64H64c-35.3 0-64 28.7-64 64V448c0 35.3 28.7 64 64 64H240V400c0-26.5 21.5-48 48-48s48 21.5 48 48V512H512c35.3 0 64-28.7 64-64V224c0-35.3-28.7-64-64-64H410.3L320.7 96H255.3zM288 192a48 48 0 1 1 0 96 48 48 0 1 1 0-96zM64 240c0-8.8 7.2-16 16-16h32c8.8 0 16 7.2 16 16v64c0 8.8-7.2 16-16 16H80c-8.8 0-16-7.2-16-16V240zm400-16h32c8.8 0 16 7.2 16 16v64c0 8.8-7.2 16-16 16H464c-8.8 0-16-7.2-16-16V240c0-8.8 7.2-16 16-16zM64 368c0-8.8 7.2-16 16-16h32c8.8 0 16 7.2 16 16v64c0 8.8-7.2 16-16 16H80c-8.8 0-16-7.2-16-16V368zm384 0c0-8.8 7.2-16 16-16h32c8.8 0 16 7.2 16 16v64c0 8.8-7.2 16-16 16H464c-8.8 0-16-7.2-16-16V368z"/></svg>

<svg xmlns="http://www.w3.org/2000/svg" viewBox="0 0 576 512"><!--! Font Awesome Pro 6.1.1 by @fontawesome - https://fontawesome.com License - https://fontawesome.com/license (Commercial License) Copyright 2022 Fonticons, Inc. --><defs><style>.fa-secondary{opacity:.4}</style></defs><path class="fa-primary" d="M288 0H400C408.8 0 416 7.164 416 16V64C416 72.84 408.8 80 400 80H320V95.53L306.6 85.96C295.5 78.01 280.5 78.01 269.4 85.96L256 95.53V32C256 14.33 270.3 0 288 0V0zM64 240C64 231.2 71.16 224 80 224H112C120.8 224 128 231.2 128 240V304C128 312.8 120.8 320 112 320H80C71.16 320 64 312.8 64 304V240zM448 240C448 231.2 455.2 224 464 224H496C504.8 224 512 231.2 512 240V304C512 312.8 504.8 320 496 320H464C455.2 320 448 312.8 448 304V240zM112 352C120.8 352 128 359.2 128 368V432C128 440.8 120.8 448 112 448H80C71.16 448 64 440.8 64 432V368C64 359.2 71.16 352 80 352H112zM448 368C448 359.2 455.2 352 464 352H496C504.8 352 512 359.2 512 368V432C512 440.8 504.8 448 496 448H464C455.2 448 448 440.8 448 432V368z"/><path class="fa-secondary" d="M410.3 160H512C547.3 160 576 188.7 576 224V448C576 483.3 547.3 512 512 512H336V400C336 373.5 314.5 352 288 352C261.5 352 240 373.5 240 400V512H64C28.65 512 0 483.3 0 448V224C0 188.7 28.65 160 64 160H165.7L269.4 85.96C280.5 78.01 295.5 78.01 306.6 85.96L410.3 160zM288 192C261.5 192 240 213.5 240 240C240 266.5 261.5 288 288 288C314.5 288 336 266.5 336 240C336 213.5 314.5 192 288 192zM80 224C71.16 224 64 231.2 64 240V304C64 312.8 71.16 320 80 320H112C120.8 320 128 312.8 128 304V240C128 231.2 120.8 224 112 224H80zM448 304C448 312.8 455.2 320 464 320H496C504.8 320 512 312.8 512 304V240C512 231.2 504.8 224 496 224H464C455.2 224 448 231.2 448 240V304zM80 352C71.16 352 64 359.2 64 368V432C64 440.8 71.16 448 80 448H112C120.8 448 128 440.8 128 432V368C128 359.2 120.8 352 112 352H80zM464 352C455.2 352 448 359.2 448 368V432C448 440.8 455.2 448 464 448H496C504.8 448 512 440.8 512 432V368C512 359.2 504.8 352 496 352H464z"/></svg>
